X: 1
T:72nd's Farewell to Aberdeen
M:C|
L:1/8
Q:80
C:
S:2/4 March
K:HP
|: e|
{g}A{Gdc}d{gdc}d{g}e3/4f/4|
g3/4f/4{g}e3/4d/4{g}f2|
{gf}gB{GdGe}B{g}c3/4d/4|  !
{g}e3/4f/4{g}e3/4c/4{g}A2|
{g}A{Gdc}d{gdc}d{g}e3/4f/4|
g3/4f/4{g}e3/4d/4{g}f2|  !
{gf}gB/4{G}B3/4{g}f3/4e/4{g}d3/4c/4|
{Gdc}d2{gdc}d:| |:
{gf}g|  !
{ag}aA{GdGe}A{d}c|
{gBd}B{e}G{g}A2|
{g}A{Gdc}d{g}A{Gdc}d|  !
{g}e3/4d/4{gcd}c3/4B/4{g}A{gf}g|
{ag}aA{GdGe}A{d}c|
{gBd}B{e}G{g}A2|  !
{g}A{Gdc}d{g}f3/4e/4{g}d3/4c/4|
{Gdc}d2{gdc}d:|
